X:1
T:André Campra (1660-1744)
T:Quam dilecta
T:Copyright © 2008 by the Choral Public Domain Library (http://www.cpdl.org) Edition may be freely distributed, duplicated, performed, or recorded.
T:Copyright © 2008 by the Choral Public Domain Library (http://www.cpdl.org) Edition may be freely distributed, duplicated, performed, or recorded.
T:Copyright © 2008 by the Choral Public Domain Library (http://www.cpdl.org) Edition may be freely distributed, duplicated, performed, or recorded.
T:Copyright © 2008 by the Choral Public Domain Library (http://www.cpdl.org) Edition may be freely distributed, duplicated, performed, or recorded.
T:Copyright © 2008 by the Choral Public Domain Library (http://www.cpdl.org) Edition may be freely distributed, duplicated, performed, or recorded.
T:Copyright © 2008 by the Choral Public Domain Library (http://www.cpdl.org) Edition may be freely distributed, duplicated, performed, or recorded.
Z:Copyright © 2008 by the Choral Public Domain Library (http://www.cpdl.org)
Z:Edition may be freely distributed, duplicated, performed, or recorded.
%%score [ 1 2 3 ] 4
L:1/8
Q:1/4=120
M:3/4
K:Bb
V:1 treble nm="Soprano" snm="Sop."
V:2 treble nm="Contralto" snm="Alto"
V:3 bass nm="Bass" snm="Bs."
V:4 bass nm="P4"
V:1
 z2 dc de | f3 (e d2) | z2 f2 ed | cB- Bc d2 | e3 (d c2) | d3 c B2 | c2 c4 | B6 | z2 dc de | %9
w: Quam * di- *|lec- ta _|ta- ber- *|na- * * cu- la|tu- a _|Do- mi- ne|vir- tu-|tum:|Quam _ di- *|
 f3 (e d2) | z2 f2 ed | cB- Bc d2 | e3 (d c2) | z2 d2 B2 | G3 G G2 | z2 c2 BA | GF- FG A2 | %17
w: lec- ta _|ta- ber- *|na- * * cu- la|tu- a, _|ta- ber-|na- cu- la,|ta- ber- *|na- * * cu- la|
 B3 (A G2) | A3 G F2 | G2 G4 | F6 | z2 AG AB | c3 B A2 | z2 c2 c2 | c3 B c2 |{/e} d4 d2 | z6 | %27
w: tu- a, _|Do- mi- ne|vir- tu-|tum:|Quam * di- *|lec- ta _|ta- ber-|na- cu- la|tu- a,||
 z2 e2 e2 | e3 d e2 | c4 c2 | d3 c B2 | c2 c4 | B6 | z6 | z6 | z6 | z6 | z6 | z6 | z6 | z6 | z6 | %42
w: ta- ber-|na- cu- la|tu- a,|Do- mi- ne|vir- tu-|tum:||||||||||
 z6 | z6 | z6 | z6 | z6 | z6 | z6 | z6 | z6 | z6 | z6 | z6 | z6 | z6 | z6 | z6 | z6 | z6 | z6 | %61
w: |||||||||||||||||||
 z6 | z6 | z6 | z6 | z6 | z6 | z6 | z2 B3 B | =B2 B2 c2 | G3 G G2 | e3 f g2 | c6 | =B6 | z6 | %75
w: |||||||con- cu-|pis- cit et|de- fi- cit|a- ni- ma|me-|a||
 c3 d e2 | d>(c B2) z2 | z2 B3 B | (B3 _A) A2 | G3 F G2 | (G2 F3) E | E2 G3 G | G2 G2 G2 | %83
w: a- ni- ma|me- a _|de- fi-|cit _ in|a- tri- a|Do- * mi-|ni, con- cu-|pis- cit et|
 F3 F F2 | F3 F F2 | G2 G2 G2 | A3 A B2 | B2 A3 B | B2 d3 e | f>c c2 c2 | c3 c c2 | z2 c3 c | %92
w: de- fi- cit|a- ni- ma|me- a in|a- tri- a|Do- * mi-|ni, con- cu-|pis- * cit et|de- fi- cit|con- cu-|
 c2 c2 c2 | G3 G G2 | z2 c3 c | c6- | c4 B2 | B3 G c2 | A3 A A2 | c3 c c2 | c>(B A2) z2 | c3 c c2 | %102
w: pis- cit et|de- fi- cit|de- fi-|cit|_ in|a- tri- a|Do- mi- ni,|a- tri- a|me- a, _|a- tri- a|
 c>(B A2) z2 | z2 f3 f | BA A3 A | B3 B B2 | B3 A G2 | A2 A2 B2 | c3 c B2- | B2 A3 B | B6 |] %111
w: me- a, _|con- cu-|pis- * cit et|de- fi- cit|a- ni- ma|me- a in|a- tri- a|_ Do- mi-|ni.|
V:2
 z2 BA Bc | d3 (c B2) | z2 d2 cB | AG- GA A2 | c3 (B A2) | B3 A B2 | B2 (B2 A2) | B6 | z2 BA Bc | %9
w: Quam * di- *|lec- ta _|ta- ber- *|na- * * cu- la|tu- a _|Do- mi- ne|vir- tu- *|tum:|Quam _ di- *|
 d3 (c B2) | z2 d2 cB | AG- GA B2 | c3 (B A2) | z2 B2 G2 | =E3 E E2 | z2 A2 GF | =ED- DE F2 | %17
w: lec- ta _|ta- ber- *|na- * * cu- la|tu- a, _|ta- ber-|na- cu- la,|ta- ber- *|na- * * cu- la|
 G3 (F =E2) | F3 =E F2 | F2 (F2 =E2) | F6 | z2 F=E FG | A3 (G F2) | z2 A2 A2 | A3 G A2 | %25
w: tu- a, _|Do- mi- ne|vir- tu- *|tum:|Quam * di- *|lec- ta _|ta- ber-|na- cu- la|
{/c} B4 B2 | z6 | z2 G2 G2 | G3 F G2 | A4 A2 | B3 A B2 | B2 (B2 A2) | B6 | z2 F3 F | G^F F2 G2 | %35
w: tu- a||ta- ber-|na- cu- la|tu- a,|Do- mi- ne|vir- tu- *|tum:|con- cu-|pis- * cit et|
 D3 D D2 | B3 c d2 | G6 | ^F6 | z2 d3 d | d>G G2 G2- | G2 (G2 E)F/(F/ | G6) | G3 F G2 | _A2 A2 z2 | %45
w: de- fi- cit|a- ni- ma|me-|a,|con- cu-|pis- * cit et|_ de- * fi- cit|_|a- ni- ma|me- a,|
 A3 =B c2 | =B>(A G2) c2 | F3 G FE | (E2 D3) C | C2 z4 | z6 | z6 | z6 | z6 | z6 | z6 | z2 F3 F | %57
w: a- ni- ma|me- a _ in|a- tri- a _|Do- * mi-|ni|||||||con- cu-|
 G^F F2 G2 | D3 D D2 | B3 c d2 | G6 | ^F6 | G3 F G2 | =E2 E2 z2 | z2 c3 =E | ^F4 D2 | G3 ^F G2 | %67
w: pis- * cit et|de- fi- cit|a- ni- ma|me-|a,|a- ni- ma|me- a|de- fi-|cit in|a- tri- a|
 G>A- A3 G | G2 z4 | z6 | z2 d2 d2 | d>G G2 G2 | G2 (G2 E)F/(F/ | G6) | G3 A B2 | A>(G F2) z2 | %76
w: Do- * * mi-|ni,||con- cu-|pis- * cit et|de- * * fi- cit|_|a- ni- ma|me- a _|
 z2 B3 F | G2 E3 E | C4 C2 | E3 E E2 | (E2 D3) E | E2 E3 E | E2 E2 E2 | E3 E E2 | D3 D D2 | %85
w: de- fi-|cit, de- fi-|cit in|a- tri- a|Do- * mi-|ni, con- cu-|pis- cit et|de- fi- cit|a- ni- ma|
 D>C C2 C2 | C3 C D2 | D2 C3 B, | B,2 B3 c | d>A A2 A2 | A3 A A2 | G3 G G2 | A>G F2 z2 | z2 c3 c | %94
w: me- * a in|a- tri- a|Do- * mi-|ni, con- cu-|pis- * cit et|de- fi- cit|a- ni- ma|me- * a,|con- cu-|
 c>B A2 F2- | F2 F3 C | D4 F2- | F2 =E3 F | F2 c3 c | G2 G2 z2 | A2 A3 A | G4 z2 | z2 c3 c | %103
w: pis- * cit et|_ de- fi-|cit et|_ de- fi-|cit, con- cu-|pis- cit|et de- fi-|cit,|con- cu-|
 c>F F2 B2 | (E3 D) E2 | D6 | =E3 E E2 | F2 F2 B2 | E3 F D2 | (D2 C3) B, | B,6 |] %111
w: pis- * cit et|de- * fi-|cit|a- ni- ma|me- a in|a- tri- a|Do- * mi-|ni.|
V:3
 z6 | z6 | z6 | z6 | z6 | z6 | z6 | z2 B,A, B,C | B,4 B,,2 | z2 B,A, B,C | B,4 B,,2 | z2 E,2 D,2 | %12
w: |||||||Quam * di- *|lec- ta,|Quam * di- *|lec- ta|ta- ber-|
 C,3 C, F,2 | B,,4 B,,2 | z2 C2 B,2 | A,3 A, A,2 | B,4 A,2 | G,3 G, C2 | F,3 G, A,2 | B,2 C4 | %20
w: na- cu- la|tu- a,|ta- ber-|na- cu- la|tu- a|Do- mi- ne,|Do- mi- ne|vir- tu-|
 F,2 F,=E, F,G, | A,3 (G, F,2) | z2 F,=E, F,G, | F,4 F,2 | z6 | z2 F,2 F,2 | F,3 E, F,2 | %27
w: tum: Quam * di- *|lec- ta, _|Quam * di- *|lec- ta||ta- ber-|na- cu- la|
{/G,} G,4 G,2 | z6 | F,3 F, F,2 | B,,3 C, D,2 | E,2 (F,2 F,,2) | B,,6 | z6 | z6 | z6 | z6 | z6 | %38
w: tu- a,||Do- mi- ne,|Do- mi- ne|vir- tu- *|tum:||||||
 z6 | z6 | z6 | z6 | z6 | z6 | z6 | z6 | z6 | z6 | z6 | z2 E,3 E, | F,E, E,2 F,2 | C,3 C, C,2 | %52
w: |||||||||||con- cu-|pis- * cit et|de- fi- cit|
 _A,3 B, C2 | F,6 | =E,6 | z2 F,3 C, | D,6 | C,3 C, B,,2 | A,,2 A,,2 D,2 | D,3 E, F,2 | %60
w: a- ni- ma|me-|a,|de- fi-|cit|a- ni- ma|me- a in|a- tri- a|
 B,,>C,- C,3 D, | D,2 D,3 C, | =B,,6 | C,3 B,, C,2 | A,,6 | D,4 B,,2 | E,3 D, C,2 | D,4- D,G,, | %68
w: Do- * * mi-|ni, de- fi-|cit|a- ni- ma|me-|a in|a- tri- a|Do- * mi-|
 G,,2 z4 | z6 | z6 | z2 C,3 B,, | _A,,2- A,,3 G,, | G,,2 G,3 F, | =E,6 | F,3 F, F,2 | %76
w: ni,|||de- *|* * fi-|cit, de- fi-|cit|a- ni- ma|
 B,,2 B,,2 z2 | E,3 E, G,2 | _A,2 A,2 F,2 | C3 C _A,2 | B,4- B,E, | E,2 E,3 E, | D,C, C,2 C,2 | %83
w: me- a,|a- ni- ma|me- a in|a- tri- a|Do- * mi-|ni, con- cu-|pis- * cit et|
 B,,A,,- A,,A,, A,,2 | _A,,3 A,, A,,2 | G,,2 G,2 G,2 | F,3 F, E,2 | F,4- F,B, | B,2 z4 | z6 | %90
w: de- * * fi- cit|a- ni- ma|me- a in|a- tri- a|Do- * mi-|ni||
 F,3 F, F,2 | F,>=E, E,2 z2 | z2 F,3 F, | F,>=E, E,2 z2 | F,2 F,3 F, | A,,4 A,,2 | B,,3 B,, B,,2 | %97
w: a- ni- ma|me- * a,|con- cu-|pis- * cit|et de- fi-|cit in|a- tri- a|
 C,4- C,F, | F,2 F,3 F, | F,>=E, E,2 z2 | F,2 F,3 F, | =E,4 z2 | z2 F,3 F, | E,D, D,2 D,2 | %104
w: Do- * mi-|ni, con- cu-|pis- * cit|et de- fi-|cit,|con- cu-|pis- * cit et|
 D,C,- C,C, C,2 | B,,3 B,, B,2 | A,G,- G,4 | F,4 G,2 | A,3 A,, B,,2 | B,,2 F,3 B,, | B,,6 |] %111
w: de- * * fi- cit|a- ni- ma|me- * *|a in|a- tri- a|Do- * mi-|ni.|
V:4
 B,6- | B,2 B,A, B,C | B,2 B,,4 | z2 E,2 D,2 | C,4 F,2 | B,,2 D,4 | E,2 F,4 | B,6- | B,6 | B,6- | %10
 B,6 | E,2 E,2 D,2 | C,4 F,2 | B,3 CDB, | C,4 B,2 | A,6 | A,4 A,2 | G,4 C,2 | F,3 G, A,2 | %19
 B,2 C2 C,2 | F,6- | F,6- | F,6- | F,6- | F,6 | B,,6- | B,,6 | E,6- | E,6 | F,4 F,2 | B,3 C, D,2 | %31
 E,2 F,2 F,2 | B,,6 | B,6 | A,4 G,2 | ^F,6 | G,4 F,2 | E,6 | D,2 D,2 C,2 | =B,6 | C4 B,2 | A,6 | %42
 F,4 F,2 | =E,6 | F,2 F,2 E,2 | D,2 D,4 | G,,2 G,F, E,2 | D,2 =B,,2 C,2 | F,2 G,4 | C,3 B, _A,2 | %50
 G,4 F,2 | =E,6 | F,4 E,2 | _D,4 x2 | C,2 C,2 B,2 | A,6 | B,6 | A,4 G,2 | ^F,6 | G,4 F,2 | E,6 | %61
 D,2 D3 C | =B,6 | C3 B, C2 | A,,6 | D,4 B,,2 | E,3 D, C,2 | D,2 D,4 | G,3 F, E,2 | D,4 C,2 | %70
 =B,,6 | C,2 C,3 B,, | _A,6 | G,2 G,3 F, | =E,4 x2 | F,4 F,2 | B,2 C,3 D, | E,4 G,2 | _A,4 F,2 | %79
 C,4 _A,2 | D,2 B,,4 | E,2 E,4 | C,4 C,2 | A,6 | _A,6 | G,4 G,2 | F,4 E,2 | F,6 | B,3 B,A,G, | %89
 F,2 F,2 F,2 | F,6 | C,6 | F,4 A,2 | C,6 | A,2 F,2 F,2 | A,6 | B,6 | C,2 C4 | F,6 | z2 C,4 | F,6 | %101
 z2 C,4 | F,4 F,2 | D,6 | C,6 | B,6 | G,6 | F,4 G,2 | A,4 B,2 | E,2 F,4 | B,6 |] %111

